flaticon/education/sharpener.svg

<svg xmlns="http://www.w3.org/2000/svg" width="32" height="32" viewBox="0 0 24 24">
    <path d="M 23.492188 1.136719 L 22.640625 0.324219 C 22.4375 0.121094 22.113281 0 21.832031 0 C 21.546875 0 21.261719 0.121094 21.0625 0.363281 L 20.414062 1.09375 C 20.375 1.132812 20.34375 1.175781 20.324219 1.222656 L 10.964844 10.582031 L 10.640625 10.257812 L 9.222656 8.835938 C 9.0625 8.675781 8.816406 8.675781 8.65625 8.835938 L 6.34375 11.148438 C 6.304688 11.148438 6.261719 11.1875 6.261719 11.230469 C 5.453125 12.769531 4.035156 14.1875 2.410156 15.082031 C 2.410156 15.082031 2.371094 15.121094 2.332031 15.121094 L 0.304688 17.230469 C 0.140625 17.390625 0.140625 17.636719 0.304688 17.796875 L 1.640625 19.257812 C 1.652344 19.28125 1.671875 19.300781 1.699219 19.316406 L 4.398438 22.257812 C 4.414062 22.285156 4.4375 22.304688 4.464844 22.324219 L 5.980469 23.878906 C 6.0625 23.960938 6.140625 24 6.261719 24 C 6.386719 24 6.507812 23.960938 6.546875 23.878906 L 8.65625 21.445312 C 8.65625 21.40625 8.695312 21.40625 8.695312 21.363281 C 9.507812 19.824219 10.925781 18.40625 12.546875 17.511719 C 12.585938 17.472656 12.585938 17.472656 12.628906 17.433594 L 14.9375 15.121094 C 15.101562 14.960938 15.101562 14.714844 14.9375 14.554688 L 13.214844 12.832031 L 22.578125 3.46875 C 22.625 3.457031 22.675781 3.4375 22.722656 3.40625 L 23.453125 2.757812 C 23.65625 2.554688 23.816406 2.269531 23.816406 1.945312 C 23.816406 1.664062 23.695312 1.335938 23.492188 1.136719 Z M 5.289062 18.527344 L 9.75 14.066406 C 9.886719 13.933594 10.09375 13.871094 10.320312 13.871094 C 10.554688 13.875 10.804688 13.945312 11.007812 14.066406 L 11.492188 14.554688 L 5.777344 20.269531 L 5.25 19.742188 C 5.125 19.621094 5.0625 19.441406 5.058594 19.246094 C 5.058594 19.007812 5.140625 18.742188 5.289062 18.527344 Z M 2.898438 15.730469 C 4.601562 14.757812 6.101562 13.296875 6.992188 11.636719 L 8.9375 9.6875 L 9.789062 10.539062 L 1.964844 18.363281 L 1.15625 17.511719 Z M 10.359375 11.109375 L 12.667969 13.417969 L 12.648438 13.4375 L 12.101562 13.988281 L 11.574219 13.460938 L 11.535156 13.417969 C 10.804688 12.933594 9.789062 12.933594 9.183594 13.460938 L 4.683594 17.960938 L 4.640625 18 C 4.074219 18.730469 4.113281 19.785156 4.683594 20.351562 L 5.167969 20.878906 L 4.683594 21.363281 L 2.492188 18.972656 Z M 12.101562 16.824219 C 10.398438 17.757812 8.898438 19.257812 8.007812 20.917969 L 6.222656 22.988281 L 5.25 21.972656 L 12.492188 14.730469 L 13.238281 13.988281 L 14.085938 14.835938 Z M 11.492188 11.109375 L 20.695312 1.945312 L 21.832031 3.082031 L 12.628906 12.242188 Z M 22.925781 1.90625 C 22.925781 1.988281 22.925781 2.066406 22.84375 2.109375 L 22.398438 2.511719 L 21.222656 1.335938 L 21.628906 0.890625 C 21.667969 0.851562 21.75 0.8125 21.832031 0.8125 C 21.914062 0.8125 21.992188 0.851562 22.035156 0.890625 L 22.886719 1.703125 C 22.964844 1.785156 22.925781 1.824219 22.925781 1.90625 Z M 22.925781 1.90625"/>
</svg>

<svg xmlns="http://www.w3.org/2000/svg" width="32" height="32" viewBox="0 0 24 24">
    <path d="M23.492 1.137l-.851-.813A1.203 1.203 0 0 0 21.832 0a.992.992 0 0 0-.77.363l-.648.73a.405.405 0 0 0-.09.13l-9.36 9.359-.323-.324-1.418-1.422a.394.394 0 0 0-.567 0l-2.312 2.312c-.04 0-.082.04-.082.082-.809 1.54-2.227 2.957-3.852 3.852 0 0-.039.04-.078.04L.305 17.23a.387.387 0 0 0 0 .567l1.336 1.46a.14.14 0 0 0 .058.06l2.7 2.94c.015.028.038.048.066.067L5.98 23.88c.082.082.16.121.282.121.125 0 .246-.04.285-.121l2.11-2.434c0-.039.038-.039.038-.082.813-1.539 2.23-2.957 3.852-3.851.039-.04.039-.04.082-.078l2.309-2.313a.387.387 0 0 0 0-.566l-1.723-1.723 9.363-9.363a.464.464 0 0 0 .145-.063l.73-.648c.203-.203.363-.488.363-.813 0-.28-.12-.61-.324-.808zM5.29 18.527l4.461-4.46c.137-.133.344-.196.57-.196.235.004.485.074.688.195l.484.489-5.715 5.715-.527-.528a.7.7 0 0 1-.191-.496c0-.238.082-.504.23-.719zM2.9 15.73c1.703-.972 3.203-2.433 4.093-4.093l1.946-1.95.851.852-7.824 7.824-.809-.851zm7.46-4.62l2.309 2.308-.02.02-.546.55-.528-.527-.039-.043c-.73-.484-1.746-.484-2.351.043l-4.5 4.5L4.64 18c-.567.73-.528 1.785.043 2.352l.484.527-.484.484-2.192-2.39zm1.743 5.714c-1.704.934-3.204 2.434-4.094 4.094l-1.785 2.07-.973-1.015 7.242-7.243.746-.742.848.848zm-.61-5.715l9.203-9.164 1.137 1.137-9.203 9.16zm11.434-9.203c0 .082 0 .16-.082.203l-.446.403-1.175-1.176.406-.445a.312.312 0 0 1 .203-.079c.082 0 .16.04.203.079l.852.812c.078.082.039.121.039.203zm0 0"/>
</svg>
